!!!COM: Claude Goudimel
!!!OMD: Psalm 49: Peuples, oyez, et l'aureille
**kern	**kern	**kern	**kern
*part4	*part3	*part2	*part1
*staff4	*staff3	*staff2	*staff1
*clefF4	*clefGv2	*clefG2	*clefG2
*k[f#]	*k[f#]	*k[f#]	*k[f#]
!!LO:TX:omd:t=
*M4/4	*M4/4	*M4/4	*M4/4
=1	=1	=1	=1
2G	2B	2d	2g
2E	2B	2e	2g
=2	=2	=2	=2
2D	2d	2f#	2a
4G	4d	4g	4b
4G	4d	4g	4b
=3	=3	=3	=3
4C	4e	4g	4cc
4GG	2d	4g	4b
2AA	.	2e	2a
.	4c#X	.	.
=4	=4	=4	=4
2D	2d	2f#	2a
2GG	2B	2d	2g
=5	=5	=5	=5
2r	2r	2r	2r
2G	2B	2g	2dd
=6	=6	=6	=6
4G	4B	4g	4dd
4C	4e	4g	4cc
2G	2d	2g	2b
=7	=7	=7	=7
2GG	2B	2g	2dd
4AA	4A	4e	4cc
4BB	4F#	4d	4b
=8	=8	=8	=8
4GG	4G	4d	4b
4C	4E	4e	4a
2BB	2F#	2e-X	2b
=9	=9	=9	=9
2r	2r	2r	2r
2GG	2d	2g	2b
=10	=10	=10	=10
4GG	4d	4g	4b
4GG	4d	4g	4b
2D	2d	2f#	2a
=11	=11	=11	=11
2GG	2d	2g	2b
4C	4e	4g	4cc
4GG	4d	4g	4b
=12	=12	=12	=12
4D	4d	4f#	4a
4E	4G	4B	4g
2D	2A	2d	2f#
=13	=13	=13	=13
2r	2r	2r	2r
2GG	2B	2d	2g
=14	=14	=14	=14
4C	4G	4c	4e
4AA	4c	4e	4a
2E	2B	2e	2g
=15	=15	=15	=15
2BB	2d	2d	2b
4C	4c	4e	4a
4C	4c	4e	4g
=16	=16	=16	=16
4D	4B	4d	4g
4D	4A	4d	4f#
2GG	2B	2d	2g
=17	=17	=17	=17
2r	2r	2r	2r
2D	2A	2d	2d
=18	=18	=18	=18
4AA	4A	4c#X	4e
4D	4A	4d	4f#
2GG	2B	2d	2g
=19	=19	=19	=19
2G	2d	2g	2b
4G	4B	4g	4dd
4G	4B	4g	4dd
=20	=20	=20	=20
4C	4e	4g	4cc
4C	4e	4g	4cc
2G	2d	2g	2b
=21	=21	=21	=21
2r	2r	2r	2r
2G	2B	2g	2dd
=22	=22	=22	=22
4E	4B	4g	4g
4D	4d	4f#	4a
2G	2d	2g	2b
=23	=23	=23	=23
2GG	2B	2g	2dd
4AA	4A	4e	4cc
4BB	4F#	4d	4b
=24	=24	=24	=24
4GG	4G	4d	4b
4C	4E	4e	4a
2BB	2F#	2e-X	2b
=25	=25	=25	=25
2r	2r	2r	2r
2E	2B	2en	2g
=26	=26	=26	=26
4E	4B	4e	4g
4D	4d	4f#	4a
2G	2d	2g	2b
=27	=27	=27	=27
2C	2e	2g	2cc
4GG	4d	4g	4b
4AA	4c	4e	4a
=28	=28	=28	=28
4C	4c	4e	4g
4D	4A	2d	4f#
2AA	2A	.	2e
.	.	4c#X	.
=29	=29	=29	=29
2D	2A	2d	2d
2r	2r	2r	2r
=30	=30	=30	=30
2GG	2B	2g	2dd
4C	4G	4g	4cc
4GG	4d	4g	4b
=31	=31	=31	=31
2D	2d	2f#	2a
2GG	2B	2g	2dd
=32	=32	=32	=32
4C	4G	4e	4cc
4GG	4d	4g	4b
4D	4d	4f#	4a
4E	4B	[4g	4g
=33	=33	=33	=33
2D	2d	4g]	2a
.	.	4f#	.
[2GG	[2d	[2g	[2g
=34	=34	=34	=34
2GG]	2d]	2g]	2g]
2ryy	2ryy	2ryy	2ryy
==	==	==	==
*-	*-	*-	*-
!!!software: music21 v.9.7.1
!!!software: music21 v.8.3.0
!!!RDF**kern: > = above
!!!RDF**kern: < = below
